X:1
T:Who Shall Have Your Soul Tonight?
T:Who Shall Have Your Soul Tonight?
T:Otto Theophilus Hirschler
T:Leonard R. Jenkins, 1920
T:Public Domain Courtesy of the Cyber Hymnal™
T:Public Domain Courtesy of the Cyber Hymnal™
C:Otto Theophilus Hirschler
Z:Public Domain
Z:Courtesy of the Cyber Hymnal™
%%score 1 ( 2 3 )
L:1/8
Q:1/4=100
M:6/8
K:Ab
V:1 treble 
V:2 bass 
V:3 bass 
V:1
 [CE]2 [CE] [EA]2 [EB] | [Ec]2 [EB] [EA]3 | [CE] [CE]2 [EA]2 [Ec] | [EB]6 | [CE]2 [DE] [EA]2 [EB] | %5
w: 1.~Je- sus’ life is|call- ing you,|Call- ing you to-|night;|And the world is|
w: 2.~Je- sus’ cross is|hard to bear|Up the nar- row|height,|But His saints are|
w: 3.~Je- sus’ love is|call- ing you,|Call- ing you to-|night;|Oh, the world is|
w: 4.~Je- sus’ voice is|call- ing you,|Plead- ing now— to-|night,|Si- lent- ly as|
 [Ec]2 [DB] [CA]3 |!>(! [Ee]2!>)! [Ec] [EA]2 [Ec] | [DB]6 | [CE]2 [DE] [EA]2 [EB] | %9
w: call- ing, too—|Which shall be your|light?|Je- sus’ way is|
w: walk- ing there—|Walk- ing there to-|night.|Steep the way, but|
w: call- ing, too!|With His cross in|sight,|Je- sus’ love is|
w: fall- ing dew,|Sweet with gen- tle|might,|Like the rays of|
 [Ec]2 [Ad] [Ae]3 | [Af]2 [Ac] [Ae]2 [EA] | [Ec]2 [GB] [EA]3 ||"^Refrain" [CE]2 [CE] [EA]2 [Ec] | %13
w: per- fect, right;|Who shall have your|soul to- night?|Make your choice to-|
w: Je- sus’ might|Guides them safe- ly|day and night.|Make your choice to-|
w: ten- der, right;|Shall He win your|love to- night?|Make your choice to-|
w: morn- ing light;|Shall He win your|soul to- night?|Make your choice to-|
 [EB]6 | [CE]2 [CE] [Ee]2 [EA] | [DB]6 | [CE]2 [DE] [EA]2 [EB] | [Ec]2 [Ad] [Ae]3 | %18
w: night;|Which shall be your|light?|Je- sus’ way is|per- fect, right;|
w: night;|Which shall be your|light?|Steep the way, but|Je- sus’ might|
w: night;|Which shall be your|light?|Je- sus’ love is|ten- der, right;|
w: night;|Which shall be your|light?|Like the rays of|morn- ing light;|
 [Af]2 [Ac] [Ae]2 [EA] | [Ec]2 [GB] [EA]3 |] %20
w: Who shall have your|soul to- night?|
w: Guides them safe- ly|day and night.|
w: Shall He win your|love to- night?|
w: Shall He win your|soul to- night?|
V:2
 A,2 A, [F,C]2 [G,B,] | A,2 [E,D] [A,C]3 | A, A,2 [A,C]2 A, | [E,G,]6 | %4
 [A,,A,]2 [B,,G,] [C,A,]2 [E,G,] | A,2 [E,G,] [F,A,]3 | [A,C]2 A, [A,C]2 A, | [E,G,]6 | %8
 A,2 [G,B,] [F,C]2 [G,B,] | A,2 [F,A,] [E,C]3 | [D,D]2 [F,C] [E,C]2 [E,C] | [E,A,]2 [E,D] [A,C]3 || %12
 A,2 A, [A,C]2 A, | [E,G,]6 | A,2 A, [C,A,]2 [C,A,] | [E,G,]6 | A,2 [G,B,] [F,C]2 [G,B,] | %17
 A,2 [F,A,] [E,C]3 | [D,D]2 [F,C] [E,C]2 [E,C] | [E,A,]2 [E,D] [A,C]3 |] %20
V:3
 A,2 A, x3 | A,2 x4 | A, A,2 A, x2 | x6 | x6 | A,2 x4 | x2 A, x A, x | x6 | A,2 x4 | A,2 x4 | x6 | %11
 x6 || A,2 A, x A, x | x6 | A,2 A, x3 | x6 | A,2 x4 | A,2 x4 | x6 | x6 |] %20

